client/public/assets/images/wise-logo.svg

<svg class="np-logo-svg np-logo-svg--size-md" xmlns="http://www.w3.org/2000/svg" width="106" height="24" fill="none"><path fill="#163300" d="M58.7377.358803h6.4982L61.9668 23.681h-6.4983L58.7377.358803Zm-8.1922 0L46.1602 13.794 44.2465.358803h-4.5448L33.9608 13.7541 33.2433.358803h-6.2991L29.1369 23.681h5.2226L40.818 8.93022 43.0904 23.681h5.1428L56.7249.358803h-6.1794ZM105.103 13.9136H89.6744c.0798 3.0299 1.8937 5.0233 4.5648 5.0233 2.0133 0 3.608-1.0765 4.8439-3.1296l5.2079 2.3674C102.501 21.7017 98.729 24 94.0798 24 87.741 24 83.535 19.7342 83.535 12.8771 83.535 5.34221 88.4784 0 95.4552 0c6.1398 0 10.0068 4.14618 10.0068 10.6046 0 1.0765-.12 2.1528-.359 3.309Zm-5.7807-4.46512c0-2.71095-1.515-4.42525-3.9468-4.42525-2.5117 0-4.5848 1.79402-5.143 4.42525h9.0898ZM6.63326 7.38685 0 15.1389h11.844l1.3309-3.6553H8.09965l3.10105-3.58555.01-.09511L9.19424 4.3319h9.07196l-7.0323 19.3492h4.8124L24.538.358823H2.60021L6.63326 7.38685Zm69.16744-2.3636c2.2923 0 4.301 1.23273 6.0551 3.34565l.9216-6.57488C81.1429.687707 78.9303 0 76 0c-5.8205 0-9.0896 3.40865-9.0896 7.73421 0 2.99999 1.6744 4.83389 4.4252 6.01989l1.3156.598c2.4518 1.0466 3.1097 1.5649 3.1097 2.6712 0 1.1461-1.1064 1.8737-2.7907 1.8737-2.7808.01-5.0332-1.4153-6.7276-3.8472l-.939 6.699C67.2332 23.2201 69.7067 24 72.9702 24c5.5315 0 8.9302-3.1894 8.9302-7.6147 0-3.0099-1.3355-4.9434-4.7044-6.4584l-1.4351-.67772c-1.9934-.88708-2.6711-1.37543-2.6711-2.35216 0-1.05647.9269-1.87377 2.7109-1.87377Z"></path></svg>

<svg width="106" height="24" viewBox="0 0 106 24" fill="none" xmlns="http://www.w3.org/2000/svg">
<g clip-path="url(#clip0_20_318)">
<path d="M58.7377 0.358803H65.2359L61.9668 23.681H55.4685L58.7377 0.358803ZM50.5455 0.358803L46.1602 13.794L44.2465 0.358803H39.7017L33.9608 13.7541L33.2433 0.358803H26.9442L29.1369 23.681H34.3595L40.818 8.93022L43.0904 23.681H48.2332L56.7249 0.358803H50.5455ZM105.103 13.9136H89.6744C89.7542 16.9435 91.5681 18.9369 94.2392 18.9369C96.2525 18.9369 97.8472 17.8604 99.0831 15.8073L104.291 18.1747C102.501 21.7017 98.729 24 94.0798 24C87.741 24 83.535 19.7342 83.535 12.8771C83.535 5.34221 88.4784 0 95.4552 0C101.595 0 105.462 4.14618 105.462 10.6046C105.462 11.6811 105.342 12.7574 105.103 13.9136ZM99.3223 9.44848C99.3223 6.73753 97.8073 5.02323 95.3755 5.02323C92.8638 5.02323 90.7907 6.81725 90.2325 9.44848H99.3223ZM6.63326 7.38685L0 15.1389H11.844L13.1749 11.4836H8.09965L11.2007 7.89805L11.2107 7.80294L9.19424 4.3319H18.2662L11.2339 23.6811H16.0463L24.538 0.358823H2.60021L6.63326 7.38685ZM75.8007 5.02325C78.093 5.02325 80.1017 6.25598 81.8558 8.3689L82.7774 1.79402C81.1429 0.687707 78.9303 0 76 0C70.1795 0 66.9104 3.40865 66.9104 7.73421C66.9104 10.7342 68.5848 12.5681 71.3356 13.7541L72.6512 14.3521C75.103 15.3987 75.7609 15.917 75.7609 17.0233C75.7609 18.1694 74.6545 18.897 72.9702 18.897C70.1894 18.907 67.937 17.4817 66.2426 15.0498L65.3036 21.7488C67.2332 23.2201 69.7067 24 72.9702 24C78.5017 24 81.9004 20.8106 81.9004 16.3853C81.9004 13.3754 80.5649 11.4419 77.196 9.9269L75.7609 9.24918C73.7675 8.3621 73.0898 7.87375 73.0898 6.89702C73.0898 5.84055 74.0167 5.02325 75.8007 5.02325Z" fill="#ADFA1D"/>
</g>
<defs>
<clipPath id="clip0_20_318">
<rect width="106" height="24" fill="white"/>
</clipPath>
</defs>
</svg>
